dist/svgs/unicons/line/bitcoin-sign.svg

<svg xmlns="http://www.w3.org/2000/svg" viewBox="0 0 24 24"><path d="M19 9a4 4 0 00-4-4V3a1 1 0 00-2 0v2h-2V3a1 1 0 00-2 0v2H6a1 1 0 000 2h1v10H6a1 1 0 000 2h3v2a1 1 0 002 0v-2h2v2a1 1 0 002 0v-2a4 4 0 002.62-7A4 4 0 0019 9zm-4 8H9v-4h6a2 2 0 010 4zm0-6H9V7h6a2 2 0 010 4z"/></svg>

<svg xmlns="http://www.w3.org/2000/svg" viewBox="0 0 24 24"><path d="M19,9a4,4,0,0,0-4-4V3a1,1,0,0,0-2,0V5H11V3A1,1,0,0,0,9,3V5H6A1,1,0,0,0,6,7H7V17H6a1,1,0,0,0,0,2H9v2a1,1,0,0,0,2,0V19h2v2a1,1,0,0,0,2,0V19a4,4,0,0,0,2.62-7A4,4,0,0,0,19,9Zm-4,8H9V13h6a2,2,0,0,1,0,4Zm0-6H9V7h6a2,2,0,0,1,0,4Z"/></svg>
